symbols/web/speaker/materialsymbolssharp/speaker_wght700gradN25fill1_40px.svg

<svg xmlns="http://www.w3.org/2000/svg" height="40" width="40"><path d="M7.375 37.542V2.417h25.25v35.125Zm12.667-22.25q1.291 0 2.208-.896.917-.896.917-2.229 0-1.292-.917-2.209-.917-.916-2.208-.916-1.334 0-2.25.896-.917.895-.917 2.229 0 1.291.917 2.208.916.917 2.25.917ZM20 31.625q2.792 0 4.729-1.958 1.938-1.959 1.938-4.709 0-2.791-1.938-4.729-1.937-1.937-4.729-1.937t-4.729 1.937q-1.938 1.938-1.938 4.729 0 2.792 1.938 4.73 1.937 1.937 4.729 1.937Zm0-2.667q-1.667 0-2.854-1.187-1.188-1.188-1.188-2.813 0-1.666 1.188-2.854 1.187-1.187 2.854-1.187t2.854 1.187q1.188 1.188 1.188 2.854 0 1.667-1.188 2.834-1.187 1.166-2.854 1.166Z"/></svg>

<svg xmlns="http://www.w3.org/2000/svg" height="40" width="40"><path d="M7.375 37.542V2.417H32.625V37.542ZM20.042 15.292Q21.333 15.292 22.25 14.396Q23.167 13.5 23.167 12.167Q23.167 10.875 22.25 9.958Q21.333 9.042 20.042 9.042Q18.708 9.042 17.792 9.938Q16.875 10.833 16.875 12.167Q16.875 13.458 17.792 14.375Q18.708 15.292 20.042 15.292ZM20 31.625Q22.792 31.625 24.729 29.667Q26.667 27.708 26.667 24.958Q26.667 22.167 24.729 20.229Q22.792 18.292 20 18.292Q17.208 18.292 15.271 20.229Q13.333 22.167 13.333 24.958Q13.333 27.75 15.271 29.688Q17.208 31.625 20 31.625ZM20 28.958Q18.333 28.958 17.146 27.771Q15.958 26.583 15.958 24.958Q15.958 23.292 17.146 22.104Q18.333 20.917 20 20.917Q21.667 20.917 22.854 22.104Q24.042 23.292 24.042 24.958Q24.042 26.625 22.854 27.792Q21.667 28.958 20 28.958Z"/></svg>
